Numix-GalliumOS/22/mimetypes/text-x-readme.svg

<?xml version="1.0" encoding="UTF-8" standalone="no"?>
<svg
   xmlns:dc="http://purl.org/dc/elements/1.1/"
   xmlns:cc="http://creativecommons.org/ns#"
   xmlns:rdf="http://www.w3.org/1999/02/22-rdf-syntax-ns#"
   xmlns:svg="http://www.w3.org/2000/svg"
   xmlns="http://www.w3.org/2000/svg"
   xmlns:sodipodi="http://sodipodi.sourceforge.net/DTD/sodipodi-0.dtd"
   xmlns:inkscape="http://www.inkscape.org/namespaces/inkscape"
   width="22"
   height="22"
   viewBox="0 0 22 22"
   id="svg2"
   version="1.1"
   inkscape:version="0.48.5 r10040"
   sodipodi:docname="text-x-readme.svg">
  <metadata
     id="metadata22">
    <rdf:RDF>
      <cc:Work
         rdf:about="">
        <dc:format>image/svg+xml</dc:format>
        <dc:type
           rdf:resource="http://purl.org/dc/dcmitype/StillImage" />
      </cc:Work>
    </rdf:RDF>
  </metadata>
  <defs
     id="defs20" />
  <sodipodi:namedview
     pagecolor="#ffffff"
     bordercolor="#666666"
     borderopacity="1"
     objecttolerance="10"
     gridtolerance="10"
     guidetolerance="10"
     inkscape:pageopacity="0"
     inkscape:pageshadow="2"
     inkscape:window-width="1280"
     inkscape:window-height="970"
     id="namedview18"
     showgrid="true"
     inkscape:zoom="29.5"
     inkscape:cx="15.159032"
     inkscape:cy="7.8921194"
     inkscape:window-x="0"
     inkscape:window-y="0"
     inkscape:window-maximized="1"
     inkscape:current-layer="svg2">
    <inkscape:grid
       type="xygrid"
       id="grid3010"
       empspacing="5"
       visible="true"
       enabled="true"
       snapvisiblegridlinesonly="true" />
  </sodipodi:namedview>
  <path
     style="fill:#dcdcdc"
     d="M 4,0 C 3.527343,0 3,0.527344 3,1 l 0,20 c 0,0.445312 0.554687,1 1,1 l 14,0 c 0.445313,0 0.992367,-0.554753 1,-1 L 19,6 13,0 z"
     id="path4"
     inkscape:connector-curvature="0"
     sodipodi:nodetypes="ssssssccs" />
  <path
     style="fill:#000000;fill-opacity:0.19599998"
     d="m 14,6 5,5 0,-5 z"
     id="path6"
     inkscape:connector-curvature="0"
     sodipodi:nodetypes="cccc" />
  <g
     style="fill:#888888"
     id="g10"
     transform="matrix(1.8007035,0,0,1.7996484,-3.4056281,-2.5957808)">
    <path
       d="m 8,5.332031 c -1.839844,0 -3.332031,1.492188 -3.332031,3.335938 C 4.667969,10.507812 6.160156,12 8,12 9.839844,12 11.332031,10.507812 11.332031,8.667969 11.332031,6.824219 9.839844,5.332031 8,5.332031 z M 8,6 c 1.472656,0 2.667969,1.195312 2.667969,2.667969 0,1.472656 -1.195313,2.664062 -2.667969,2.664062 -1.472656,0 -2.667969,-1.191406 -2.667969,-2.664062 C 5.332031,7.195312 6.527344,6 8,6 z"
       id="path12"
       inkscape:connector-curvature="0" />
    <path
       d="M 8.667969,7.332031 C 8.667969,7.703125 8.367188,8 8,8 7.632812,8 7.332031,7.703125 7.332031,7.332031 7.332031,6.964844 7.632812,6.667969 8,6.667969 c 0.367188,0 0.667969,0.296875 0.667969,0.664062 z"
       id="path14"
       inkscape:connector-curvature="0" />
    <path
       d="m 8.5553386,8.3881834 0,2.2226566 -1.1106771,0 0,-2.2226566 z"
       id="path16"
       inkscape:connector-curvature="0"
       sodipodi:nodetypes="ccccc" />
  </g>
  <path
     style="fill:#ffffff;fill-opacity:0.39200003"
     d="m 13,0 6,6 -5,0 C 13.554688,6 13,5.445312 13,5 z"
     id="path8"
     inkscape:connector-curvature="0"
     sodipodi:nodetypes="ccssc" />
</svg>

<svg xmlns="http://www.w3.org/2000/svg" viewBox="0 0 22 22">
 <path d="m 4 0 c -0.473 0 -1 0.527 -1 1 l 0 20 c 0 0.445 0.555 1 1 1 l 14 0 c 0.445 0 0.992 -0.555 1 -1 l 0 -15 -6 -6 z" style="fill:#dcdcdc"/>
 <path d="m 14 6 5 5 0 -5 z" style="fill:#000;fill-opacity:0.196"/>
 <g transform="matrix(1.8007035,0,0,1.7996484,-3.4056281,-2.5957808)" style="fill:#888">
  <path d="m 8 5.332 c -1.84 0 -3.332 1.492 -3.332 3.336 c 0 1.84 1.492 3.332 3.332 3.332 1.84 0 3.332 -1.492 3.332 -3.332 0 -1.844 -1.492 -3.336 -3.332 -3.336 z m 0 0.668 c 1.473 0 2.668 1.195 2.668 2.668 0 1.473 -1.195 2.664 -2.668 2.664 -1.473 0 -2.668 -1.191 -2.668 -2.664 c 0 -1.473 1.195 -2.668 2.668 -2.668 z"/>
  <path d="m 8.668 7.332 c 0 0.371 -0.301 0.668 -0.668 0.668 -0.367 0 -0.668 -0.297 -0.668 -0.668 0 -0.367 0.301 -0.664 0.668 -0.664 c 0.367 0 0.668 0.297 0.668 0.664 z"/>
  <path d="m 8.555 8.388 0 2.223 -1.111 0 0 -2.223 z"/>
 </g>
 <path d="m 13 0 6 6 -5 0 c -0.445 0 -1 -0.555 -1 -1 z" style="fill:#fff;fill-opacity:0.392"/>
</svg>
